src/img/channel/channel_62.svg

<svg fill="none" height="74" viewBox="0 0 150 74" width="150" xmlns="http://www.w3.org/2000/svg"><path d="m14.4282 61.7984-1.6151 11.5923h-12.8131l9.73792-73.3907h17.08448l10.0089 73.3907h-14.0132l-1.1892-11.5923zm3.8519-37.4923-2.7335 24.5082h4.9443l-2.211-23.0638" fill="#2da24a"/><path d="m38.8667 21.1377 5.2106 21.3551h4.1003v-42.4928h-4.4419v22.1628l-4.2711-22.1628h-4.7834v42.4928h4.1855z" fill="#2da24a"/><path d="m50.9111 0h11.1048v42.4928h-11.1048z" fill="#2da24a"/><path d="m93.1096 21.1377 22.5514 5.1254v16.2297h-50.7406v-10.8482h32.1187l-32.1187-7.6025v-7.1753l31.4352-6.6631h-31.2645v-10.2037h50.9109v17.2085z" fill="#8bc641"/><path d="m122.472 34.8053-.684 7.6875h-4.209l3.929-42.4928h5.428l3.93 42.4928h-4.152l-.683-7.6875zm1.673-22.2097-1.538 17.0843h3.075z" fill="#2da24a"/><path d="m150 34.1219h-7.688v-34.1219h-9.567v42.4928h17.255z" fill="#2da24a"/><g fill="#297c47"><path d="m47.4077 44.938c6.8631 0 8.1165 3.8148 8.1165 5.8896v6.6226c0 1.8575-.5959 3.2111-1.6309 4.3049-1.035 1.0937-2.8377 1.9223-4.4102 1.9223-1.5726 0-3.3555 0-3.3555 0v9.7133h-7.5172v-28.4527zm-1.2801 5.5847v7.3462s1.6823.3881 2.4166-.5903c.6387-.8512.5651-1.7752.5651-3.3129 0-1.5375-.006-2.3054-.8604-2.9887-.854-.6831-2.1213-.4543-2.1213-.4543z"/><path d="m71.5833 67.436h-6.6629v-22.498h-7.5171v28.4527h14.18z"/><path d="m82.5174 54.4521 1.5375 9.7376h-3.0752zm-4.2712-9.5141-5.6378 28.4527h7.346l.6835-3.5625h3.7588l.6835 3.5625h7.346l-5.6378-28.4527z"/><path d="m100.626 60.4317 7.859 12.959h5.979v-28.4527h-6.833v13.6143l-7.175-13.6143h-6.4926v28.4527h6.6626z"/><path d="m130.922 67.7777h-7.061v-6.3209h7.061v-5.2964h-7.061v-5.6377h7.061v-5.5847h-14.578v28.4527h14.578z"/><path d="m137.529 73.3907h7.517v-23.0387h4.954v-5.414h-17.255v5.414h4.784z"/></g></svg>

<svg width="150" height="74" viewBox="0 0 150 74" fill="none" xmlns="http://www.w3.org/2000/svg">
<path d="M14.4282 61.7984L12.8131 73.3907H0L9.73792 0H26.8224L36.8313 73.3907H22.8181L21.6289 61.7984H14.4282ZM18.2801 24.3061L15.5466 48.8143H20.4909L18.2799 25.7505" fill="#2DA24A"/>
<path d="M38.8667 21.1377L44.0773 42.4928H48.1776V0H43.7357V22.1628L39.4646 0H34.6812V42.4928H38.8667V21.1377Z" fill="#2DA24A"/>
<path d="M50.9111 0H62.0159V42.4928H50.9111V0Z" fill="#2DA24A"/>
<path d="M93.1096 21.1377L115.661 26.2631V42.4928H64.9204V31.6446H97.0391L64.9204 24.0421V16.8668L96.3556 10.2037H65.0911V0H116.002V17.2085L93.1096 21.1377Z" fill="#8BC641"/>
<path d="M122.472 34.8053L121.788 42.4928H117.579L121.508 0H126.936L130.866 42.4928H126.714L126.031 34.8053H122.472ZM124.145 12.5956L122.607 29.6799H125.682L124.145 12.5956Z" fill="#2DA24A"/>
<path d="M150 34.1219H142.312V0H132.745V42.4928H150V34.1219Z" fill="#2DA24A"/>
<path d="M47.4077 44.938C54.2708 44.938 55.5242 48.7528 55.5242 50.8276C55.5242 52.0207 55.5242 55.7396 55.5242 57.4502C55.5242 59.3077 54.9283 60.6613 53.8933 61.7551C52.8583 62.8488 51.0556 63.6774 49.4831 63.6774C47.9105 63.6774 46.1276 63.6774 46.1276 63.6774V73.3907H38.6104V44.938C38.6105 44.938 44.2683 44.938 47.4077 44.938ZM46.1276 50.5227V57.8689C46.1276 57.8689 47.8099 58.257 48.5442 57.2786C49.1829 56.4274 49.1093 55.5034 49.1093 53.9657C49.1093 52.4282 49.1033 51.6603 48.2489 50.977C47.3949 50.2939 46.1276 50.5227 46.1276 50.5227Z" fill="#297C47"/>
<path d="M71.5833 67.436H64.9204V44.938H57.4033V73.3907H71.5833V67.436Z" fill="#297C47"/>
<path d="M82.5174 54.4521L84.0549 64.1897H80.9797L82.5174 54.4521ZM78.2462 44.938L72.6084 73.3907H79.9544L80.6379 69.8282H84.3967L85.0802 73.3907H92.4262L86.7884 44.938H78.2462Z" fill="#297C47"/>
<path d="M100.626 60.4317L108.485 73.3907H114.464V44.938H107.631V58.5523L100.456 44.938H93.9634V73.3907H100.626V60.4317Z" fill="#297C47"/>
<path d="M130.922 67.7777H123.861V61.4568H130.922V56.1604H123.861V50.5227H130.922V44.938H116.344V73.3907H130.922V67.7777Z" fill="#297C47"/>
<path d="M137.529 73.3907H145.046V50.352H150V44.938H132.745V50.352H137.529V73.3907Z" fill="#297C47"/>
</svg>
